resources/haticons/SVG/add_road.svg

<!-- Generated by IcoMoon.io -->
<svg version="1.1" xmlns="http://www.w3.org/2000/svg" width="24" height="24" viewBox="0 0 24 24">
<title>add_road</title>
<path d="M20.016 18v-3h-2.016v3h-3v2.016h3v3h2.016v-3h3v-2.016h-3zM18 3.984h2.016v9h-2.016v-9zM3.984 3.984h2.016v16.031h-2.016v-16.031zM11.016 3.984h1.969v4.031h-1.969v-4.031zM11.016 9.984h1.969v4.031h-1.969v-4.031zM11.016 15.984h1.969v4.031h-1.969v-4.031z"></path>
</svg>

<svg xmlns="http://www.w3.org/2000/svg" width="24" height="24"><path d="M20.016 18v-3H18v3h-3v2.016h3v3h2.016v-3h3V18h-3zM18 3.984h2.016v9H18v-9zm-14.016 0H6v16.031H3.984V3.984zm7.032 0h1.969v4.031h-1.969V3.984zm0 6h1.969v4.031h-1.969V9.984zm0 6h1.969v4.031h-1.969v-4.031z"/></svg>
